X:86
T:Lord Moira,aka. RHu.086
T:Loudon’s Bonnie Braes,aka. RHu.086
T:Indian Polka,aka. RHu.086
S:R.Hughes MS,1823,Whitchurch,Shrops.
A:Whitchurch, Shropshire
Z:Neil Brookes 2006
M:4/4
L:1/8
Q:1/2=100
R:Reel
N:Untitled in MS
K:G
G2GB d2dB|cABG AFD2|G2GBd2d2|egfa g2g2::!
g2bg af d2|efge dBG2|g2bg af d2|egfa g2g2|!
g2 bg agfd|efge dcBA|G2GB d2d2|egfa g2g2|]

